svgs/light/monitor-waveform.svg

<svg xmlns="http://www.w3.org/2000/svg" viewBox="0 0 576 512"><!-- Font Awesome Pro 6.0.0-alpha2 by @fontawesome - https://fontawesome.com License - https://fontawesome.com/license (Commercial License) --><path d="M512 32H64C28.654 32 0 60.654 0 96V416C0 451.346 28.654 480 64 480H512C547.348 480 576 451.346 576 416V96C576 60.654 547.348 32 512 32ZM544 416C544 433.645 529.645 448 512 448H64C46.355 448 32 433.645 32 416V288L182.062 287.906L209.687 343.156C212.406 348.594 217.969 352 224 352H224.656C230.969 351.719 236.5 347.781 238.844 341.938L286.625 222.5L304.812 277.062C307 283.594 313.125 288 320 288H416C424.844 288 432 280.844 432 272S424.844 256 416 256H331.531L303.188 170.938C301.062 164.562 295.188 160.219 288.469 160C281.844 160.312 275.656 163.844 273.156 170.062L222.375 296.969L206.312 264.844C203.625 259.469 198.156 256.062 192.156 256H32.156L32 96C32 78.355 46.355 64 64 64H512C529.645 64 544 78.355 544 96V416Z"/></svg>

<svg xmlns="http://www.w3.org/2000/svg" viewBox="0 0 576 512"><!--! Font Awesome Pro 6.3.0 by @fontawesome - https://fontawesome.com License - https://fontawesome.com/license (Commercial License) Copyright 2023 Fonticons, Inc. --><path d="M512 32H64C28.65 32 0 60.65 0 96v320c0 35.35 28.65 64 64 64h448c35.35 0 64-28.65 64-64V96C576 60.65 547.3 32 512 32zM544 416c0 17.64-14.36 32-32 32H64c-17.64 0-32-14.36-32-32V288l150.1-.0313l27.62 55.17C212.4 348.6 217.1 352 224 352h.6562c6.312-.2813 11.84-4.219 14.19-10.06L286.6 222.5l18.19 54.56C307 283.6 313.1 288 320 288h96c8.844 0 16-7.156 16-16S424.8 256 416 256h-84.47l-28.34-85.06C301.1 164.6 295.2 160.2 288.5 160C281.8 160.3 275.7 163.8 273.2 170.1L222.4 296.1L206.3 264.8C203.6 259.5 198.2 256.1 192.2 256h-160L32 96c0-17.64 14.36-32 32-32h448c17.64 0 32 14.36 32 32V416z"/></svg>
